X: 18487
T: Hyde And Seek
R: jig
M: 6/8
K: Adorian
|:B2f dcB|cdc BFB|B2f dcd|efg {e}f3|
B2f dcB|cdc BFB|Bcd edc|B2A B3:|
|:e2f gfe|d2e fed|c2d edc|(3defd {B}c3|
e2f gfe|d2e fed|c2d edc|~B2A B3:|

